X:1
T:Io ardo, o Filli
T:Giacomo Ricordi
T:Source : Canzonette a la Romana a tre voce---Venetia---Ang.Gardano---1601. Editor : André Vierendeels (23/01/17).
T:Notes : Original clefs ; G2, G2, F3 Editorial accidentals above the staff
T:Io ardo, o Filli
T:©
T:©
C:Giacomo Ricordi
Z:©
%%score [ 1 2 3 ]
L:1/8
Q:1/4=86
M:4/4
K:F
V:1 treble nm="Soprano 1" snm="S 1"
V:2 treble nm="Soprano 2" snm="S 2"
V:3 treble-8 nm="Tenor" snm="T"
V:1
"^1)" d8 | d4 f4 | e4 e4 | z2 e2 g4 | z2 e2 g2 d2 | d2 c2 A4 |[M:2/4] =B4 ::[M:4/4] d4 d4 | %8
w: Io|ar- d'o|Fil- li,|e tu,|e tu de|l'ar- dor mi-|o,|non cu-|
w: Io|vi- vo'in|pian- to,|e tu,|e tu lie-|ta'e si- cu-|ra,|o- d'il|
 f4 e4- | e4 e4 | d2 de f2 g2 | e4 d4- | d4 d4- | d2 c2 c4 | B2 B2 A4- | A4 !fermata!=B4 :| %16
w: r'in- gra-|* ta|an- zi ti pren dra|gio- co.|_ Far-|* mi star|sem- pr'in fo-|* co.|
w: mio pian-|* to,|e pur non do- ni'a-|i- ta.|_ Al|_ la mia|stan- ca vi-|* ta.|
V:2
"^2)""^1)" =B8 | =B4 d4 | ^c4 c2 c2 |"^-natural" e4 z2 c2 | e2 c2 d2 B2- |"^#" BA G4 F2 | %6
w: Io|ar- d'o|Fil- li, e|tu, e|tu de l'ar- dor|_ _ mi- *|
w: E|s'io ti|chia- m'o Fil-|li, *|||
w: |||* o|Fil- li, tu ri-|* * tro- *|
[M:2/4] G4 ::[M:4/4]"^b" B4 B4 | d4 ^c4- | c4 ^c4 | f2 fe d2 d2 | ^c4 d4 | B6 B2 | G4 A4 | %14
w: o,|non cu-|r'in- gra|_ ta|an- zi ti pren- dra|gio- co.|Far- mi|star sem-|
w: ||||||||
w: sa,|schi- vi|la vo-|* ce|mi- a fug- gen- do'all'|ho- ra.|Ac- cio|piu to-|
 G2 G4 ^FE | ^F4 !fermata!G4 :| %16
w: pr'in fo- * *|* co.|
w: ||
w: sto io mo- *|* ra.|
V:3
"^3)""^1)""^4)" G8 | G4 D4 | A4 A2 A2 |"^-natural" c4 z2 C2 | c2 c2 G3 A | B2 c2 d4 |[M:2/4] G4 :: %7
w: Io|ar- d'o|Fil- li e|tu, e-|tu de l'ar- *|* dor mi-|o,|
w: Ma|poi- che|bra- mi che|quest' al-|ma la- * *||sci,|
[M:4/4] G4 G4 | D4 A4- | A4 A4 | d2 dc B2 G2 | A4 D4 | G6 G2 |"^b" E4 F4 | G4 D4- | %15
w: non cu-|r'in- gra-|* ta|an- zi ti pren- dra|gio- co.|Far- mi|star sem-|pre'in fo-|
w: pal- li-|do'il cor-|* po|al- men di se ti|pia- ce,|al- ma|vat- te-|ne'in pa-|
 D4 !fermata!G4 :| %16
w: * co.|
w: * ce.|

